X:2
T:Alto, Primo Coro, Canzon septimi toni a 8, from Sacrae Symphoniae (1597)
C:Giovanni Gabrielli (1557-1612)
%%MIDI nobarlines
%%MIDI ratio 3 1
M:4/2
L:1/2
K:C
G/G/G/G/Gz |z/G/G/G/^F/G/G/F/ |G z z z/d/ |B//B//B//B//B/B/c>c |
c//c//c//c//d/>D/EF |EAA4 ^F2|
M:3/2
L:1/2
GGG |A2D |G2^F |G2z |AAA | A>AA |A2A |A2z |GG>c |c2 c |deA |
M:4/2
L:1/2
AABd>c ABB |cecd |e3E |e2^c2 |z4 |
z2A A/A/ |A/>A/ ^G/>G/A/E/A |B/B/>B/B/ A/A/E/A/ |A/D/D/D/=G/C/C/C/ |
FEE2 |z4 | z2zz/E/ |^F>F G>G |GGA3 AB3B cc |dGGc |B/A/>A/G/ FE/E/ |
F/F/Gzz/G/ |A/A/Gzz/c/ |A/F/G/AG^F/ |G/D/DD2 |z4 |
z2zA |GBc2 |B2Ad |dAG2 |cc/c/dd |
^c>cdB/=cA/B/A^G/A |^F/=GG/=F/>E/D |E/E/E/A/AA |
z2z/A/^G |Azz/E/E/A/ |^Gzz/G/G/A/ |B3B |
M:3/2
L:1/2
B2z |^ccd |B>B=c |AA>D |G3 | z3 | EGA |DGG | E2E |AB2 |
M:4/2
L:1/2
A2AF/F/ |Dd^c2 |z/^c/d/>B/=c2 |Azz2 |
z/c/_BAz/G/ |EAA2 |HA2z2 |G/G/G/G/Gz |z2z/G/G/A/ |
^F/G/G/F/G>G |G//G//G//G//G/G/=F2 |zDED |A/>G/ F/D/A/E/ A3/2 Dd/dA |
AAGB |c/c/B/B/GG |Gcc2 |HB4 |]
